X: 31
T:Sherriff Muir
M:4/4
L:1/8
R:Strathspey
K:A
"A"e2 e>d c>d e2|"E"B>cd>c B>c d2|"A"e2 e>d c>d e2|"A"A>Bc>A "E"B2 "A"A2
:||!
c>A A/A/A c>A c2|"E"d>B B/B/B d>B d2|c>A A/A/A c>A c2|"A"A>Bc>A "E"B2 "A
"A2:||
